!!!COM: Corelli, Arcangelo
!!!OTL: 
!!!ONM: Opus 6, No. 10
!!!OMV: 1
!!!CDT: 1653/2/17/-1713/1/8/
!!!OCY: Italia
**kern	**kern	**kern	**kern	**kern	**kern	**kern
*clefC	*clefG	*clefG	*clefG	*clefC	*clefG	*clefG
*k[]	*k[]	*k[]	*k[]	*k[]	*k[]	*k[]
*C:	*C:	*C:	*C:	*C:	*C:	*C:
*M4/4	*M4/4	*M4/4	*M4/4	*M4/4	*M4/4	*M4/4
=1	=1	=1	=1	=1	=1	=1
8c	4cc	4ee	4gg	8c	4ee	4gg
8C	.	.	.	8C	.	.
8E	8r	8r	8r	8E	8r	8r
8C	8c	8cc	8ee	8C	8cc	8ee
8r	8g	4b	4dd	8r	4b	4dd
8G	8G	.	.	8G	.	.
8B	8r	8r	8r	8B	8r	8r
8G	8g	8b	8gg	8G	8b	8gg
=2	=2	=2	=2	=2	=2	=2
8r	8cc	8cc	4ee	8r	8cc	4ee
8c	8c	8cc	.	8c	8cc	.
8e	8r	4.gg	8r	8e	4.gg	8r
8c	8e	.	8cc	8c	.	8cc
8F	4c	.	4.aa	8F	.	4.aa
8G	.	8cc	.	8G	8cc	.
8A	8r	[4ff	.	8A	[4ff	.
8F	8a	.	8cc	8F	.	8cc
=3	=3	=3	=3	=3	=3	=3
8B	4d	8ff]	4.gg	8B	8ff]	4.gg
8G	.	8b	.	8G	8b	.
8c	8r	8ee	.	8c	8ee	.
8B	8g	8dd	8gg	8B	8dd	8gg
8A	8a	8ff#	8ccc	8A	8ff#	8ccc
8G	16b	4gg	8bb	8G	4gg	8bb
.	16cc	.	.	.	.	.
8d	8.dd	.	4aa	8d	.	4aa
8D	.	8ff#	.	8D	8ff#	.
.	16dd	.	.	.	.	.
=4	=4	=4	=4	=4	=4	=4
4G	4b	4gg	4gg	8G	8gg	4.gg
.	.	.	.	8g	8g	.
2.r	2.r	2.r	2.r	8e	4.cc	.
.	.	.	.	8c	.	8g
.	.	.	.	8f	.	4.dd
.	.	.	.	8d	8g	.
.	.	.	.	8B	[4dd	.
.	.	.	.	8G	.	8g
=5	=5	=5	=5	=5	=5	=5
4.r	4.r	4.r	4.r	8c	8dd]	4.ee
.	.	.	.	8d	8g	.
.	.	.	.	8e	4cc	.
8E	8c	8cc	8g	8E	.	8g
8D	8d	8b	8ff	8D	8b	8ff
8C	16e	4cc	8ee	8C	4cc	8ee
.	16f	.	.	.	.	.
8G	8g	.	4dd	8G	.	4dd
8GG	8g	[8b	.	8GG	[8b	.
=6	=6	=6	=6	=6	=6	=6
8A	4e	8b]	4cc	8A	8b]	4cc
8AA	.	4a	.	8AA	4a	.
8e	8r	.	4b	8e	.	4b
8E	8e	4g	.	8E	4g	.
8F	4c	.	4a	8F	.	4a
8FF	.	8f	.	8FF	8f	.
8r	8r	[4ff	16dd	8r	[4ff	16dd
.	.	.	16ee	.	.	16ee
8F	8a	.	16cc	8F	.	16cc
.	.	.	16dd	.	.	16dd
=7	=7	=7	=7	=7	=7	=7
8G	8d	16ff]	8b	8G	16ff]	8b
.	.	16gg	.	.	16gg	.
8C	8e	16ee	4cc	8C	16ee	4cc
.	.	16ff	.	.	16ff	.
8G	8.g	4dd	.	8G	4dd	.
8GG	.	.	8b	8GG	.	8b
.	16g	.	.	.	.	.
8C	4e	4cc	8cc	8C	4cc	8cc
8e	.	.	4gg	8e	.	4gg
8f	8r	4aa	.	8f	4aa	.
8F	8a	.	[8ff	8F	.	[8ff
=8	=8	=8	=8	=8	=8	=8
8G	8d	8b	8ff]	8G	8b	8ff]
8c	16e	4cc	8ee	8c	4cc	8ee
.	16f	.	.	.	.	.
8g	8.g	.	4dd	8g	.	4dd
8G	.	8b	.	8G	8b	.
.	16g	.	.	.	.	.
4c	4e	4cc	4cc	8c	8cc	4cc
.	.	.	.	8A	8ee	.
4r	4r	4r	4r	8G#	8b	8r
.	.	.	.	8E	8e	8ee
=9	=9	=9	=9	=9	=9	=9
4.r	4.r	4.r	4.r	8r	8r	8cc
.	.	.	.	8A	8ee	8a
.	.	.	.	8G#	8b	8r
8E	8e	8g#	8ee	8E	8e	8ee
8A	8e	8a	8cc	8A	8r	8cc
8G	8e	8b	4ee	8G	8b	4ee
4F	4A	4a	.	4F	4a	.
.	.	.	8dd	.	.	8dd
=10	=10	=10	=10	=10	=10	=10
4E	4B	4g#	4ee	8E	8g#	4.ee
.	.	.	.	8F#	8ee	.
2r	2r	2r	2r	8G#	4.bb	.
.	.	.	.	8E	.	8ee
.	.	.	.	8A	.	4.ccc
.	.	.	.	8G	8ee	.
8r	8r	8r	8r	8F	8aa	.
8D	8d	[8dd	8ff	8D	[8dd	8ff
=11	=11	=11	=11	=11	=11	=11
8E	8B	8dd]	8g#	8E	8dd]	8g#
8A	16c	8cc	4a	8A	8cc	4a
.	16d	.	.	.	.	.
8e	8.e	4b	.	8e	4b	.
8E	.	.	8g#	8E	.	8g#
.	16e	.	.	.	.	.
4A	4e	4a	4a	4A	4a	8a
.	.	.	.	.	.	8aa
4r	4r	4r	4r	8c#	8r	4ee
.	.	.	.	8A	8aa	.
=12	=12	=12	=12	=12	=12	=12
4.r	4.r	4.r	4.r	8d	4ff	8r
.	.	.	.	8d	.	8aa
.	.	.	.	8c#	8r	4ee
8A	8a	8aa	8cc#	8A	8aa	.
4D	4a	4ff	4dd	4d	4ff	8r
.	.	.	.	.	.	8bb
4r	4r	4r	4r	8d#	8r	4ff#
.	.	.	.	8B	8bb	.
=13	=13	=13	=13	=13	=13	=13
4.r	4.r	4.r	4.r	8e	4gg	8r
.	.	.	.	8e	.	8bb
.	.	.	.	8d#	8r	4ff#
8B	8b	8bb	8dd#	8B	8bb	.
4E	4b	4gg	4ee	4e	4gg	8r
.	.	.	.	.	.	8bb
8r	8r	8r	8r	8r	8r	[4ccc
8e	8e	8gg	[8ccc	8e	8gg	.
=14	=14	=14	=14	=14	=14	=14
8d	8f#	4ff#	8ccc]	8d	4ff#	8ccc]
8G	8b	.	4bb	8G	.	4bb
8c	8e	4ee	.	8c	4ee	.
8F#	8a	.	4aa	8F#	.	4aa
8B	8d	4dd	.	8B	4dd	.
8E	8g	.	4gg	8E	.	4gg
8A	8c	8cc	.	8A	8cc	.
8AA	8cc	[8aa	16ff#	8AA	[8aa	16ff#
.	.	.	16ee	.	.	16ee
=15	=15	=15	=15	=15	=15	=15
8BB	8f#	8aa]	8dd#	8BB	8aa]	8dd#
8E	16g	8gg	4ee	8E	8gg	4ee
.	16a	.	.	.	.	.
8B	8.b	4ff#	.	8B	4ff#	.
8BB	.	.	8dd#	8BB	.	8dd#
.	16b	.	.	.	.	.
8E	4b	8ee	4.ee	8E	8ee	4.ee
8D	.	8e	.	8D	8e	.
8C	8r	[4a	.	8C	[4a	.
8AA	8a	.	8cc	8AA	.	8cc
=16	=16	=16	=16	=16	=16	=16
8BB	8f#	8a]	8d#	8BB	8a]	8d#
8E	16g	8g	4e	8E	8g	4e
.	16a	.	.	.	.	.
8B	4b	4f#	.	8B	4f#	.
8BB	.	.	8d#	8BB	.	8d#
8E	2b	2e	2e	8E	2e	2e
8F	.	.	.	8F	.	.
8E	.	.	.	8E	.	.
8D	.	.	.	8D	.	.
=17	=17	=17	=17	=17	=17	=17
8c	4cc	4ee	4gg	8c	4ee	4gg
8C	.	.	.	8C	.	.
8E	8r	8r	8r	8E	8r	8r
8C	8c	8cc	8ee	8C	8cc	8ee
8r	8g	4b	4dd	8r	4b	4dd
8G	8G	.	.	8G	.	.
8B	8r	8r	8r	8B	8r	8r
8G	8g	8b	8gg	8G	8b	8gg
=18	=18	=18	=18	=18	=18	=18
8r	8cc	8cc	4ee	8r	8cc	4ee
8c	8c	8cc	.	8c	8cc	.
8e	8r	4.gg	8r	8e	4.gg	8r
8c	8e	.	8cc	8c	.	8cc
8F	4c	.	4.aa	8F	.	4.aa
8G	.	8cc	.	8G	8cc	.
8A	8r	[4ff	.	8A	[4ff	.
8F	8a	.	8cc	8F	.	8cc
=19	=19	=19	=19	=19	=19	=19
8B	4d	8ff]	4.gg	8B	8ff]	4.gg
8G	.	8b	.	8G	8b	.
8c	8r	8ee	.	8c	8ee	.
8B	8g	8dd	8gg	8B	8dd	8gg
8A	8a	8ff#	8ccc	8A	8ff#	8ccc
8G	16b	4gg	8bb	8G	4gg	8bb
.	16cc	.	.	.	.	.
8d	8.dd	.	4aa	8d	.	4aa
8D	.	8ff#	.	8D	8ff#	.
.	16dd	.	.	.	.	.
=20	=20	=20	=20	=20	=20	=20
4G	4b	4gg	4gg	8G	8gg	4.gg
.	.	.	.	8g	8g	.
2.r	2.r	2.r	2.r	8e	4.cc	.
.	.	.	.	8c	.	8g
.	.	.	.	8f	.	4.dd
.	.	.	.	8d	8g	.
.	.	.	.	8B	[4dd	.
.	.	.	.	8G	.	8g
=21	=21	=21	=21	=21	=21	=21
4.r	4.r	4.r	4.r	8c	8dd]	4.ee
.	.	.	.	8d	8g	.
.	.	.	.	8e	4cc	.
8E	8A	8cc	8g	8E	.	8g
8D	8d	8b	8ff	8D	8b	8ff
8C	16e	4cc	8ee	8C	4cc	8ee
.	16f	.	.	.	.	.
8G	8.g	.	4dd	8G	.	4dd
8GG	.	[8b	.	8GG	[8b	.
.	16g	.	.	.	.	.
=22	=22	=22	=22	=22	=22	=22
8A	4e	8b]	4cc	8A	8b]	4cc
8AA	.	4a	.	8AA	4a	.
8e	8r	.	4b	8e	.	4b
8E	8e	4g	.	8E	4g	.
8F	4c	.	4a	8F	.	4a
8FF	.	8f	.	8FF	8f	.
8r	8r	[4ff	16dd	8r	[4ff	16dd
.	.	.	16ee	.	.	16ee
8F	8a	.	16cc	8F	.	16cc
.	.	.	16dd	.	.	16dd
=23	=23	=23	=23	=23	=23	=23
8G	8d	16ff]	8b	8G	16ff]	8b
.	.	16gg	.	.	16gg	.
8C	8e	16ee	4cc	8C	16ee	4cc
.	.	16ff	.	.	16ff	.
8G	8.g	4dd	.	8G	4dd	.
8GG	.	.	8b	8GG	.	8b
.	16g	.	.	.	.	.
8C	4g	8ee	4.cc	8C	8ee	4.cc
8D	.	8cc	.	8D	8cc	.
8E	8r	[4gg	.	8E	[4gg	.
8C	8e	.	8gg	8C	.	8gg
=24	=24	=24	=24	=24	=24	=24
4F	4c	8gg]	8aa	4F	8gg]	8aa
.	.	8cc	8a	.	8cc	8a
8r	8r	8ff	8dd	8r	8ff	8dd
8F	8c	8ee	8cc	8F	8ee	8cc
4G	4g	4dd	4b	4G	4dd	4b
8r	8r	8r	8r	8r	8r	8r
8E	8c	8ee	8gg	8E	8ee	8gg
=25	=25	=25	=25	=25	=25	=25
8F	4c	8a	4ff	8F	8a	4ff
8G	.	8b	.	8G	8b	.
8A	8r	2cc	8ee	8A	2cc	8ee
8F	8a	.	8dd	8F	.	8dd
4G	4g	.	4ee	4G	.	4ee
4GG	4g	4b	4dd	4GG	4b	4dd
=26	=26	=26	=26	=26	=26	=26
1C	1e	1cc	1cc	1C	1cc	1cc
==	==	==	==	==	==	==
*-	*-	*-	*-	*-	*-	*-
!!!RWG: This file only contains pitch and duration data.
!!!RWG: Transposing instruments are not transposed.
!!!RWG: Durations of rests and tied notes may be interpreted.
!!!RWG: Key is interpreted using the Humdrum key tool.
!!!SCA: 
!!!YOR: Chrysander Edition
!!!AGN: concerto grosso
!!!AFT: stage1
!!!ENC: F. Bennion
!!!END: 1997/04/15
!!!AST: baroque
!!!YEC: Copyright 1994, Center for Computer Assisted Research in the Humanities
!!!YEM: Rights to all derivative electronic formats reserved.
!!!YEM: Refer to licensing agreement for further details.
!!!YEN: United States of America
!!!EED: W.B. Hewlett
!!!KEY: 3950264774
!!!EMD: Converted from MuseData to Humdrum Aug 2, 1999, by Bret Aarden using muse2kern.
!!!VTS: 2049066511
